X: 440
T: Fill the Bumper Fair   #2
N: Irish title: lion suas an glucaid
R: air
%S: s:2 b:10(5+5)
B: O'Neill's 1850 #440
Z: henrik.norbeck@mailbox.swipnet.se
N: Compacted via repeats and multiple endings [JC]
Q: "Lively"
M: 3/4
L: 1/8
K: G
"^A"[| BB/A/ GD G2 | BB/A/ GD FA | BB/A/ GD G2 | FA AD FA "^B"|: GB dc B2 |
| GB dc Bd |1 GB dc B2 | FA AD FA :|2 ed ef (gf/e/) | dB AG FA |]
